public/images/logo.svg

<svg width="148" height="37" viewBox="0 0 148 37" fill="none" xmlns="http://www.w3.org/2000/svg">
  <path
    d="M2.87642 9.81818V36H6.63494V17.0412H6.87784L14.5994 35.9616H17.7188L25.4403 17.054H25.6832V36H29.4418V9.81818H24.6477L16.3125 30.1705H16.0057L7.67045 9.81818H2.87642ZM44.0092 36.3963C48.2919 36.3963 51.3217 34.2869 52.1911 31.0909L48.5732 30.4389C47.8828 32.2926 46.2209 33.2386 44.0476 33.2386C40.7749 33.2386 38.576 31.1165 38.4737 27.3324H52.434V25.9773C52.434 18.8821 48.1896 16.108 43.7408 16.108C38.2692 16.108 34.6641 20.2756 34.6641 26.3097C34.6641 32.4077 38.218 36.3963 44.0092 36.3963ZM38.4865 24.4688C38.6399 21.6818 40.6598 19.2656 43.7663 19.2656C46.7322 19.2656 48.6754 21.4645 48.6882 24.4688H38.4865ZM71.3896 21.1577C70.5969 18.1023 68.2063 16.108 63.962 16.108C59.5259 16.108 56.381 18.4474 56.381 21.9247C56.381 24.7116 58.0685 26.5653 61.7504 27.3835L65.0742 28.1122C66.9663 28.5341 67.8484 29.3778 67.8484 30.6051C67.8484 32.1264 66.2248 33.3153 63.7191 33.3153C61.4308 33.3153 59.9606 32.331 59.5004 30.4006L55.8058 30.9631C56.445 34.4403 59.3342 36.3963 63.7447 36.3963C68.4876 36.3963 71.7731 33.8778 71.7731 30.3239C71.7731 27.5497 70.0089 25.8366 66.4038 25.0057L63.2844 24.2898C61.1239 23.7784 60.1907 23.0497 60.2035 21.7202C60.1907 20.2116 61.8271 19.1378 64.0004 19.1378C66.3782 19.1378 67.4776 20.4545 67.9251 21.7713L71.3896 21.1577ZM85.142 16.3636H81.1151V11.6591H77.2926V16.3636H74.4162V19.4318H77.2926V31.027C77.2798 34.5938 80.0028 36.3196 83.0199 36.2557C84.2344 36.2429 85.0526 36.0128 85.5 35.8466L84.8097 32.6889C84.554 32.7401 84.081 32.8551 83.4673 32.8551C82.2273 32.8551 81.1151 32.446 81.1151 30.2344V19.4318H85.142V16.3636ZM97.4308 36.3963C102.966 36.3963 106.584 32.3438 106.584 26.2713C106.584 20.1605 102.966 16.108 97.4308 16.108C91.8952 16.108 88.2773 20.1605 88.2773 26.2713C88.2773 32.3438 91.8952 36.3963 97.4308 36.3963ZM97.4435 33.1875C93.8256 33.1875 92.1381 30.0298 92.1381 26.2585C92.1381 22.5 93.8256 19.304 97.4435 19.304C101.036 19.304 102.723 22.5 102.723 26.2585C102.723 30.0298 101.036 33.1875 97.4435 33.1875Z"
    fill="white"/>
  <path
    d="M110.057 12H111.114V8.59091H113.023C113.099 8.59091 113.172 8.59091 113.244 8.58665L115.085 12H116.312L114.339 8.39489C115.452 8.01562 115.972 7.10795 115.972 5.94886C115.972 4.40625 115.051 3.27273 113.006 3.27273H110.057V12ZM111.114 7.63636V4.21023H112.972C114.386 4.21023 114.932 4.90057 114.932 5.94886C114.932 6.99716 114.386 7.63636 112.989 7.63636H111.114ZM121.721 9.32386C121.721 10.5511 120.784 11.1136 120.034 11.1136C119.199 11.1136 118.602 10.5 118.602 9.54545V5.45455H117.596V9.61364C117.596 11.2841 118.483 12.0852 119.71 12.0852C120.699 12.0852 121.346 11.5568 121.653 10.892H121.721V12H122.727V5.45455H121.721V9.32386ZM129.205 6.92045C128.89 5.99148 128.183 5.36932 126.887 5.36932C125.506 5.36932 124.484 6.15341 124.484 7.26136C124.484 8.16477 125.021 8.76989 126.222 9.05114L127.313 9.30682C127.974 9.46023 128.285 9.77557 128.285 10.2273C128.285 10.7898 127.688 11.25 126.751 11.25C125.928 11.25 125.413 10.8963 125.234 10.1932L124.279 10.4318C124.513 11.544 125.43 12.1364 126.768 12.1364C128.289 12.1364 129.325 11.3054 129.325 10.1761C129.325 9.2642 128.754 8.68892 127.586 8.40341L126.614 8.16477C125.839 7.97301 125.489 7.71307 125.489 7.21023C125.489 6.64773 126.086 6.23864 126.887 6.23864C127.765 6.23864 128.127 6.72443 128.302 7.17614L129.205 6.92045ZM135.475 6.92045C135.159 5.99148 134.452 5.36932 133.157 5.36932C131.776 5.36932 130.753 6.15341 130.753 7.26136C130.753 8.16477 131.29 8.76989 132.492 9.05114L133.583 9.30682C134.243 9.46023 134.554 9.77557 134.554 10.2273C134.554 10.7898 133.958 11.25 133.02 11.25C132.198 11.25 131.682 10.8963 131.503 10.1932L130.549 10.4318C130.783 11.544 131.699 12.1364 133.037 12.1364C134.559 12.1364 135.594 11.3054 135.594 10.1761C135.594 9.2642 135.023 8.68892 133.855 8.40341L132.884 8.16477C132.108 7.97301 131.759 7.71307 131.759 7.21023C131.759 6.64773 132.355 6.23864 133.157 6.23864C134.034 6.23864 134.397 6.72443 134.571 7.17614L135.475 6.92045ZM137.108 12H138.114V5.45455H137.108V12ZM137.619 4.36364C138.011 4.36364 138.335 4.05682 138.335 3.68182C138.335 3.30682 138.011 3 137.619 3C137.227 3 136.903 3.30682 136.903 3.68182C136.903 4.05682 137.227 4.36364 137.619 4.36364ZM141.882 12.1534C143.024 12.1534 143.62 11.5398 143.825 11.1136H143.876V12H144.882V7.6875C144.882 5.60795 143.297 5.36932 142.461 5.36932C141.473 5.36932 140.348 5.71023 139.836 6.90341L140.791 7.24432C141.012 6.76705 141.537 6.25568 142.495 6.25568C143.42 6.25568 143.876 6.74574 143.876 7.58523V7.61932C143.876 8.10511 143.382 8.0625 142.189 8.21591C140.974 8.37358 139.649 8.64205 139.649 10.142C139.649 11.4205 140.637 12.1534 141.882 12.1534ZM142.035 11.25C141.234 11.25 140.654 10.892 140.654 10.1932C140.654 9.42614 141.353 9.1875 142.137 9.08523C142.564 9.03409 143.706 8.91477 143.876 8.71023V9.63068C143.876 10.4489 143.228 11.25 142.035 11.25Z"
    fill="white"/>
</svg>

<svg width="148" height="37" fill="none" xmlns="http://www.w3.org/2000/svg"><path d="M2.876 9.818V36h3.759V17.041h.243l7.721 18.92h3.12l7.721-18.907h.243V36h3.759V9.818h-4.794L16.313 30.17h-.307L7.67 9.819H2.876zM44.01 36.396c4.283 0 7.313-2.11 8.182-5.305l-3.618-.652c-.69 1.854-2.352 2.8-4.525 2.8-3.273 0-5.472-2.122-5.574-5.907h13.96v-1.355c0-7.095-4.244-9.869-8.693-9.869-5.472 0-9.077 4.168-9.077 10.202 0 6.098 3.554 10.086 9.345 10.086zM38.486 24.47c.154-2.787 2.174-5.203 5.28-5.203 2.966 0 4.91 2.199 4.922 5.203H38.486zm32.904-3.311c-.793-3.056-3.184-5.05-7.428-5.05-4.436 0-7.581 2.34-7.581 5.817 0 2.787 1.688 4.64 5.37 5.459l3.323.728c1.892.422 2.774 1.266 2.774 2.493 0 1.521-1.623 2.71-4.129 2.71-2.288 0-3.758-.984-4.219-2.914l-3.694.562c.639 3.477 3.528 5.433 7.939 5.433 4.743 0 8.028-2.518 8.028-6.072 0-2.774-1.764-4.487-5.37-5.318l-3.119-.716c-2.16-.512-3.093-1.24-3.08-2.57-.013-1.508 1.623-2.582 3.796-2.582 2.378 0 3.478 1.316 3.925 2.633l3.465-.613zm13.752-4.794h-4.027V11.66h-3.822v4.705h-2.877v3.068h2.877v11.595c-.013 3.567 2.71 5.293 5.727 5.229 1.214-.013 2.033-.243 2.48-.41l-.69-3.157c-.256.051-.729.166-1.343.166-1.24 0-2.352-.409-2.352-2.62V19.431h4.027v-3.068zm12.289 20.032c5.535 0 9.153-4.052 9.153-10.125 0-6.11-3.618-10.163-9.153-10.163-5.536 0-9.154 4.052-9.154 10.163 0 6.073 3.618 10.125 9.154 10.125zm.013-3.209c-3.618 0-5.306-3.157-5.306-6.928 0-3.759 1.688-6.955 5.305-6.955 3.593 0 5.28 3.196 5.28 6.955 0 3.77-1.687 6.928-5.28 6.928zM110.057 12h1.057V8.59h1.909c.076 0 .149 0 .221-.003L115.085 12h1.227l-1.973-3.605c1.113-.38 1.633-1.287 1.633-2.446 0-1.543-.921-2.676-2.966-2.676h-2.949V12zm1.057-4.364V4.21h1.858c1.414 0 1.96.69 1.96 1.739 0 1.048-.546 1.687-1.943 1.687h-1.875zm10.607 1.688c0 1.227-.937 1.79-1.687 1.79-.835 0-1.432-.614-1.432-1.569v-4.09h-1.006v4.159c0 1.67.887 2.471 2.114 2.471.989 0 1.636-.528 1.943-1.193h.068V12h1.006V5.455h-1.006v3.869zm7.484-2.404c-.315-.929-1.022-1.55-2.318-1.55-1.381 0-2.403.783-2.403 1.891 0 .904.537 1.509 1.738 1.79l1.091.256c.661.153.972.469.972.92 0 .563-.597 1.023-1.534 1.023-.823 0-1.338-.354-1.517-1.057l-.955.239c.234 1.112 1.151 1.704 2.489 1.704 1.521 0 2.557-.83 2.557-1.96 0-.912-.571-1.487-1.739-1.773l-.972-.238c-.775-.192-1.125-.452-1.125-.955 0-.562.597-.971 1.398-.971.878 0 1.24.485 1.415.937l.903-.256zm6.27 0c-.316-.929-1.023-1.55-2.318-1.55-1.381 0-2.404.783-2.404 1.891 0 .904.537 1.509 1.739 1.79l1.091.256c.66.153.971.469.971.92 0 .563-.596 1.023-1.534 1.023-.822 0-1.338-.354-1.517-1.057l-.954.239c.234 1.112 1.15 1.704 2.488 1.704 1.522 0 2.557-.83 2.557-1.96 0-.912-.571-1.487-1.739-1.773l-.971-.238c-.776-.192-1.125-.452-1.125-.955 0-.562.596-.971 1.398-.971.877 0 1.24.485 1.414.937l.904-.256zm1.633 5.08h1.006V5.455h-1.006V12zm.511-7.636c.392 0 .716-.307.716-.682 0-.375-.324-.682-.716-.682-.392 0-.716.307-.716.682 0 .375.324.682.716.682zm4.263 7.79c1.142 0 1.738-.614 1.943-1.04h.051V12h1.006V7.687c0-2.08-1.585-2.318-2.421-2.318-.988 0-2.113.341-2.625 1.534l.955.341c.221-.477.746-.988 1.704-.988.925 0 1.381.49 1.381 1.33v.033c0 .486-.494.444-1.687.597-1.215.158-2.54.426-2.54 1.926 0 1.279.988 2.011 2.233 2.011zm.153-.904c-.801 0-1.381-.358-1.381-1.057 0-.767.699-1.005 1.483-1.108.427-.05 1.569-.17 1.739-.375v.92c0 .819-.648 1.62-1.841 1.62z" fill="#fff"/></svg>
